X:1
T:Title
%%score ( 1 2 ) { 3 | 4 }
L:1/8
Q:1/4=100
M:4/4
K:A
V:1 treble nm="Grand Piano, Treble"
V:2 treble 
V:3 bass nm="Grand Piano, Bass"
V:4 bass 
V:1
 z4 z2 [A,C]>[B,D] | [CE]>[Ec] [Ec]>[Ec] [Ec]>[EB] [EB]>[EA] | %2
w: 1.~Lord,~ the~|shades~ of~ night~ are~ gent ly~ sooth ing~|
 [DG]>[DF] [DF]>[D^E] [DF]2 [DF]>[DF] | [^DF]>[DB] [DB]>[DB] [=DB]>[CA] [CA]>[DG] | %4
w: na ture~ in to~ rest,~ And~ Thy~|love,~ to~ us~ un fold ing,~ moves~ de|
 [DG]>[DF] [DF]>[CE] [CE][Q:1/4=100][B,D][Q:1/4=100] [A,C]>[B,D][Q:1/4=12][Q:1/4=12] | %5
w: vo tion~ in~ our~ breast,~ * Round~ the~|
 [CE]>[Ec] [Ec]>[Ec] [Ec]>[DB] [DB]>[CA] | [DG]>[DF] [DF]>[D^E] [DF]2 [FB]>[FB] | %7
w: sa cred~ fam 'ly~ al tar,~ we~ would~|close~ our~ pli grim~ days,~ Make~ the~|
 [EB]>[EA] [EG]>[EF] E>[Ed] [Ec]>[DB] | [CA]6 [EB]>[EB] | [EB]>[Ec] [Ed]>[Ec] [DB]>[CA] [Ec]>[DB] | %10
w: eve ning~ vo cal~ with~ our~ hymns~ of~|praise.~ * *||
 [CA]4 E4 | [EB]>[EB] [EB]>[Ec] [Ed]>[Ed] [Ec]>[^D=c] | [Ec]6 [A,C]>[B,D] | %13
w: |||
 [CE]2 [CA]2 [Ec]>[DB] [CA]>[DF] | [CE]4 [A,C]2 [Ec]2 | [GB]2 [Bd]2 [Ac]>[Ac] [EB]>[EB] | A6 z2 |] %17
w: ||||
V:2
 x8 | x8 | x8 | x8 | x8 | x8 | x8 | x8 | x8 | x8 | x8 | x8 | x8 | x8 | x8 | x8 | E>E F>F E2 z2 |] %17
V:3
 z4 z2 E,>E, | A,>A, A,>A, A,>A, G,>A, | A,>A, A,>A, A,2 A,>A, | B,>F, F,>F, E,>E, A,>B, | %4
 A,>A, A,>A, A,2 E,>E, | A,>A, A,>A, A,>A, A,>A, | A,>A, A,>A, A,2[K:treble] D>D | %7
 D>C B,>[K:bass]A, G,>B, A,>G, | A,6 G,>G, | G,>G, B,>A, G,>A, A,>E, | E,4 A,4 | %11
 G,>G, G,>A, B,>B, A,>A, | A,2 E,>C, A,,2 E,>E, | A,2 A,2 A,>A, A,>A, | A,4 E,2 A,[K:treble]C | %15
 E2 E2 E>E D>D | C>C D>D C2 z2 |] %17
V:4
 z4 z2 A,,>A,, | A,,>A,, A,,>A,, A,,>A,, B,,>C, | D,>D, D,>D, D,2 D,>D, | %3
 B,,>B,, B,,>B,, z2 E,>E, | A,,>A,, A,,>A,, A,,2 A,,>A,, | A,,>A,, A,,>A,, A,,>A,, A,,>A,, | %6
 D,>D, D,>D, D,2 D,>D, | E,>E, E,>E, E,>E, E,>E, | A,,6 E,>E, | E,>E, E,>E, E,>E, E,2 | A,,4 C,4 | %11
 E,>E, E,>E, E,>E, E,>E, | z4 z2 A,,>A,, | A,,2 A,,2 A,,>A,, A,,>A,, | A,,4 A,,2 z2 | %15
 E,2 E,2 E,>E, E,>E, | A,,6 z2 |] %17

